X:105
T:Merle's Tune
N:as played by Liz on Liz Carroll. Compare Paddy O'Brien's recording. Transcribed by Alan Ng
D:Green Linnet GLCD 1092
R:reel
C:Liz Carroll
Z: id:ng-reels-21 transcribed by Alan Ng agng@students.wisc.edu May 25, 1997
M:C|
K:BDor
BFBc dBFE|DCG,B, A,B,CE|FBBc defg|aefd cAdc|BFBc dBFE|DEFG AECE|\
DA,DF AECE|AECF DB,B,B,::BcdB bBfB|dBfb fBBA|Bcde aAeA|cAea eA{cd}cA|\
BFBc dBFB|defg aece|dAfd cAec|EDCF DB,B,B,:|*
